X: 84
T:Little Burnt Potato
R:Jig
C:Lesley Dolman, via EF
S:Nottingham Music Database
M:6/8
L:1/8
Q:3/8=120
K:D
fg|a^ga ba^g|afd Ade|fef g2f|efe Bcd|
efe dcB|Ace a3|[1 a^ga ba=g|f3 f2g:||[2 a^ga b2c|d3 d2e|
|:f2A f2A|f3 f2e|def agf|g3 gef|
gba gfe|dcB A2a|[1 a^ga ba=g|f3 fde:|||[2 a^ga b2c|d3 d2|]
